img/new-access/fun-mark.svg

<svg width="53" height="74" viewBox="0 0 53 74" fill="none" xmlns="http://www.w3.org/2000/svg">
<path d="M52.3967 73.7536H1.15021C0.990191 73.7536 0.836739 73.6948 0.723591 73.5902C0.610444 73.4856 0.546875 73.3438 0.546875 73.1959V6.43852C0.546875 6.29062 0.610444 6.14878 0.723591 6.0442C0.836739 5.93962 0.990191 5.88086 1.15021 5.88086H52.3967C52.5567 5.88086 52.7102 5.93962 52.8233 6.0442C52.9365 6.14878 53 6.29062 53 6.43852V73.1959C53 73.3438 52.9365 73.4856 52.8233 73.5902C52.7102 73.6948 52.5567 73.7536 52.3967 73.7536V73.7536ZM1.75355 72.6382H51.7841V6.9962H1.75355V72.6382Z" fill="#C47A2D"/>
<path d="M47.2637 30.3946H5.98616C5.82614 30.3946 5.67268 30.3359 5.55953 30.2313C5.44638 30.1267 5.38281 29.9849 5.38281 29.837C5.38281 29.6891 5.44638 29.5472 5.55953 29.4426C5.67268 29.3381 5.82614 29.2793 5.98616 29.2793H47.2637C47.4237 29.2793 47.5772 29.3381 47.6903 29.4426C47.8035 29.5472 47.867 29.6891 47.867 29.837C47.867 29.9849 47.8035 30.1267 47.6903 30.2313C47.5772 30.3359 47.4237 30.3946 47.2637 30.3946Z" fill="#C47A2D"/>
<path d="M47.2637 36.2774H5.98616C5.82614 36.2774 5.67268 36.2187 5.55953 36.1141C5.44638 36.0095 5.38281 35.8677 5.38281 35.7198C5.38281 35.5719 5.44638 35.43 5.55953 35.3254C5.67268 35.2209 5.82614 35.1621 5.98616 35.1621H47.2637C47.4237 35.1621 47.5772 35.2209 47.6903 35.3254C47.8035 35.43 47.867 35.5719 47.867 35.7198C47.867 35.8677 47.8035 36.0095 47.6903 36.1141C47.5772 36.2187 47.4237 36.2774 47.2637 36.2774Z" fill="#C47A2D"/>
<path d="M47.2637 42.129H5.98616C5.82614 42.129 5.67268 42.0703 5.55953 41.9657C5.44638 41.8611 5.38281 41.7193 5.38281 41.5713C5.38281 41.4234 5.44638 41.2816 5.55953 41.177C5.67268 41.0724 5.82614 41.0137 5.98616 41.0137H47.2637C47.4237 41.0137 47.5772 41.0724 47.6903 41.177C47.8035 41.2816 47.867 41.4234 47.867 41.5713C47.867 41.7193 47.8035 41.8611 47.6903 41.9657C47.5772 42.0703 47.4237 42.129 47.2637 42.129V42.129Z" fill="#C47A2D"/>
<path d="M47.2637 48.0509H5.98616C5.82689 48.0487 5.67481 47.9892 5.56218 47.8851C5.44954 47.781 5.38521 47.6404 5.38281 47.4932C5.38521 47.346 5.44954 47.2054 5.56218 47.1013C5.67481 46.9972 5.82689 46.9378 5.98616 46.9355H47.2637C47.4237 46.9355 47.5772 46.9943 47.6903 47.0989C47.8035 47.2035 47.867 47.3453 47.867 47.4932C47.867 47.6411 47.8035 47.783 47.6903 47.8875C47.5772 47.9921 47.4237 48.0509 47.2637 48.0509V48.0509Z" fill="#C47A2D"/>
<path d="M47.2637 53.9181H5.98616C5.82614 53.9181 5.67268 53.8593 5.55953 53.7547C5.44638 53.6502 5.38281 53.5083 5.38281 53.3604C5.38281 53.2125 5.44638 53.0707 5.55953 52.9661C5.67268 52.8615 5.82614 52.8027 5.98616 52.8027H47.2637C47.4237 52.8027 47.5772 52.8615 47.6903 52.9661C47.8035 53.0707 47.867 53.2125 47.867 53.3604C47.867 53.5083 47.8035 53.6502 47.6903 53.7547C47.5772 53.8593 47.4237 53.9181 47.2637 53.9181Z" fill="#C47A2D"/>
<path d="M47.2637 59.8009H5.98616C5.82614 59.8009 5.67268 59.7421 5.55953 59.6375C5.44638 59.533 5.38281 59.3911 5.38281 59.2432C5.38281 59.0953 5.44638 58.9535 5.55953 58.8489C5.67268 58.7443 5.82614 58.6855 5.98616 58.6855H47.2637C47.4237 58.6855 47.5772 58.7443 47.6903 58.8489C47.8035 58.9535 47.867 59.0953 47.867 59.2432C47.867 59.3911 47.8035 59.533 47.6903 59.6375C47.5772 59.7421 47.4237 59.8009 47.2637 59.8009Z" fill="#C47A2D"/>
<path d="M47.2637 65.6915H5.98616C5.82614 65.6915 5.67268 65.6328 5.55953 65.5282C5.44638 65.4236 5.38281 65.2817 5.38281 65.1338C5.38281 64.9859 5.44638 64.8441 5.55953 64.7395C5.67268 64.6349 5.82614 64.5762 5.98616 64.5762H47.2637C47.4237 64.5762 47.5772 64.6349 47.6903 64.7395C47.8035 64.8441 47.867 64.9859 47.867 65.1338C47.867 65.2817 47.8035 65.4236 47.6903 65.5282C47.5772 65.6328 47.4237 65.6915 47.2637 65.6915Z" fill="#C47A2D"/>
<path d="M47.4602 19.7394C47.3487 19.7394 47.2392 19.6992 47.1572 19.6234L42.3193 15.1517L37.4813 19.6234C37.3587 19.7367 37.1743 19.7705 37.0145 19.7092C36.8544 19.648 36.75 19.5035 36.75 19.3434V1.1284C36.75 0.909741 36.9418 0.732422 37.1784 0.732422H47.4601C47.6968 0.732422 47.8885 0.909741 47.8885 1.1284V19.3434C47.8885 19.5035 47.7842 19.648 47.624 19.7092C47.5711 19.7296 47.5155 19.7394 47.4602 19.7394ZM42.3193 14.1957C42.4288 14.1957 42.5386 14.2343 42.6221 14.3116L47.0317 18.3874V1.52438H37.6068V18.3874L42.0164 14.3117C42.0999 14.2343 42.2097 14.1957 42.3193 14.1957Z" fill="#C47A2D"/>
<path d="M42.3193 14.1957C42.4288 14.1957 42.5386 14.2343 42.6221 14.3116L47.0317 18.3874V1.52438H37.6068V18.3874L42.0164 14.3117C42.0999 14.2343 42.2097 14.1957 42.3193 14.1957Z" fill="white"/>
</svg>

<svg width="53" height="74" fill="none" xmlns="http://www.w3.org/2000/svg"><path d="M52.397 73.754H1.15a.63.63 0 01-.426-.164.537.537 0 01-.177-.394V6.439c0-.148.063-.29.177-.395a.63.63 0 01.426-.163h51.247a.63.63 0 01.426.163.537.537 0 01.177.395v66.757c0 .148-.063.29-.177.394a.63.63 0 01-.426.164zM1.754 72.638h50.03V6.996H1.754v65.642z" fill="#C47A2D"/><path d="M47.264 30.395H5.986a.63.63 0 01-.426-.164.537.537 0 01-.177-.394c0-.148.063-.29.177-.394a.63.63 0 01.426-.164h41.278a.63.63 0 01.426.164.537.537 0 01.177.394c0 .148-.063.29-.177.394a.63.63 0 01-.426.164zm0 5.882H5.986a.63.63 0 01-.426-.163.537.537 0 01-.177-.394c0-.148.063-.29.177-.395a.63.63 0 01.426-.163h41.278a.63.63 0 01.426.163.537.537 0 01.177.395c0 .148-.063.29-.177.394a.63.63 0 01-.426.163zm0 5.852H5.986a.63.63 0 01-.426-.163.537.537 0 01-.177-.395c0-.148.063-.29.177-.394a.63.63 0 01.426-.163h41.278a.63.63 0 01.426.163.537.537 0 01.177.394c0 .148-.063.29-.177.395a.63.63 0 01-.426.163zm0 5.921H5.986a.638.638 0 01-.424-.165.546.546 0 01-.18-.392.546.546 0 01.18-.392.639.639 0 01.424-.166h41.278a.63.63 0 01.426.164.537.537 0 01.177.394c0 .148-.063.29-.177.395a.63.63 0 01-.426.163zm0 5.868H5.986a.63.63 0 01-.426-.163.537.537 0 01-.177-.395c0-.148.063-.29.177-.394a.63.63 0 01.426-.163h41.278a.63.63 0 01.426.163.537.537 0 01.177.394c0 .148-.063.29-.177.395a.63.63 0 01-.426.163zm0 5.882H5.986a.63.63 0 01-.426-.162.537.537 0 01-.177-.395c0-.148.063-.29.177-.394a.63.63 0 01.426-.163h41.278a.63.63 0 01.426.163.537.537 0 01.177.394c0 .148-.063.29-.177.395a.63.63 0 01-.426.163zm0 5.892H5.986a.63.63 0 01-.426-.164.537.537 0 01-.177-.394c0-.148.063-.29.177-.394a.63.63 0 01.426-.164h41.278a.63.63 0 01.426.164.537.537 0 01.177.394c0 .148-.063.29-.177.394a.63.63 0 01-.426.163zm.196-45.952a.447.447 0 01-.303-.117l-4.838-4.471-4.838 4.471a.454.454 0 01-.467.086.397.397 0 01-.264-.366V1.128c0-.218.192-.396.428-.396H47.46c.237 0 .428.178.428.396v18.215c0 .16-.104.305-.264.366a.455.455 0 01-.164.03zm-5.14-5.544a.44.44 0 01.302.116l4.41 4.075V1.524h-9.425v16.863l4.41-4.075a.445.445 0 01.302-.116z" fill="#C47A2D"/><path d="M42.32 14.196a.44.44 0 01.302.116l4.41 4.075V1.524h-9.425v16.863l4.41-4.075a.445.445 0 01.302-.116z" fill="#fff"/></svg>
